usr/share/icons/biglinux-icons-material-dark/symbolic/status/critical-notif-symbolic.svg

<svg width="16" height="16" version="1.1" xmlns="http://www.w3.org/2000/svg">
 <path class="error" d="m14 3.5a2.5 2.5 0 0 1-5 0 2.5 2.5 0 1 1 5 0z" fill="#ff5555" stroke-width="1.25"/>
 <path d="m7.9941 1c-3.2266 0-5.8715 2.4513-5.9941 5.5684l-0.00391 0.22461v3.6074l-0.92383 2.2207-0.042969 0.12695-0.021484 0.12695c-0.0504 0.4635 0.19274 0.88173 0.60352 1.0527l0.125 0.04297c0.08456 0.0228 0.17182 0.0332 0.25977 0.0332h2.0039v-0.0039h1.1777a3 3 0 0 0 2.8223 2 3 3 0 0 0 2.8223-2h2.1777v0.0039h0.99805l0.13476-0.0098 0.11524-0.02734c0.4527-0.129 0.75-0.51489 0.75-0.96289l-0.0098-0.13086-0.01367-0.08594c-0.0127-0.0569-0.03013-0.11192-0.05273-0.16602l-0.92578-2.2227v-3.5957l-0.0039-0.22461-0.01367-0.22266c-0.0095-0.11966-0.02421-0.23806-0.04102-0.35547a3.5 3.5 0 0 1-0.94531 0.6543l0.0039 0.1582v3.6875l0.03906 0.19141 0.96289 2.3125-0.04492 2e-3h-2.9531a3 3 0 0 0 0-2e-3 3 3 0 0 0 0-2e-3 3 3 0 0 0 0-2e-3h-1a2 2 0 0 1 0 2e-3 2 2 0 0 1 0 2e-3 2 2 0 0 1 0 2e-3l-4-2e-3a2 2 0 0 1 0-0.0039h-1a3 3 0 0 0 0 0.0039h-3.0039l0.96289-2.3125 0.037109-0.19141v-3.6973l0.00391-0.20508 0.013672-0.21289c0.21002-2.4613 2.3579-4.3848 4.9805-4.3848 0.11414 0 0.22762 0.00455 0.33984 0.011719a3.5 3.5 0 0 1 0.64258-0.93359c-0.3201-0.050778-0.64757-0.07809-0.98239-0.07809zm-1.7188 13h3.4492a2 2 0 0 1-1.7246 1 2 2 0 0 1-1.7246-1z" fill="#dedede"/>
</svg>

<svg xmlns="http://www.w3.org/2000/svg" width="16" height="16">
<path fill="#f55" d="M14 3.5a2.5 2.5 0 0 1-5 0 2.5 2.5 0 1 1 5 0" class="error"/>
<path fill="#363636" d="M7.994 1C4.768 1 2.123 3.451 2 6.568l-.004.225V10.4l-.924 2.221-.043.127-.021.127c-.05.464.193.882.603 1.053l.125.043a1 1 0 0 0 .26.033H4V14h1.178A3 3 0 0 0 8 16a3 3 0 0 0 2.822-2H13v.004h.998l.135-.01.115-.027c.453-.13.75-.515.75-.963l-.01-.131-.013-.086a1 1 0 0 0-.053-.166l-.926-2.223V6.803l-.004-.225-.014-.223a6 6 0 0 0-.04-.355 3.5 3.5 0 0 1-.946.654l.004.158V10.5l.04.191.962 2.313-.045.002H11V13h-1v.006l-4-.002V13H5v.004H1.996l.963-2.313.037-.191V6.803L3 6.598l.014-.213C3.224 3.923 5.372 2 7.994 2q.171 0 .34.012a3.5 3.5 0 0 1 .643-.934A6 6 0 0 0 7.994 1M6.275 14h3.45A2 2 0 0 1 8 15a2 2 0 0 1-1.725-1"/>
</svg>
